lib/preview/nrk-logo-preview-nrk-sport-on-dark.svg

<svg width="81" height="24" viewBox="0 0 81 24" fill="none" xmlns="http://www.w3.org/2000/svg">
<path d="M0 18.0029V6.00396H3.93719V18.0029H0ZM9.29381 7.91365L11.5581 18.0029H7.24917L4.54549 6.00396H6.96218C7.51635 5.99677 8.05406 6.19212 8.4745 6.55326C8.89562 6.89925 9.18495 7.37957 9.29381 7.91365ZM12.1495 18.0029V6.00396H16.0867V18.0029H12.1495ZM19.0605 10.567C18.6362 10.5711 18.2188 10.4601 17.8525 10.2458C17.4912 10.037 17.1911 9.73683 16.9823 9.37547C16.7678 9.0092 16.6568 8.59163 16.661 8.16719C16.6561 7.74533 16.7672 7.33025 16.9823 6.9673C17.1933 6.60986 17.4931 6.31296 17.8525 6.10539C18.2189 5.89137 18.6362 5.78038 19.0605 5.78425C19.4822 5.77971 19.8971 5.8908 20.2602 6.10539C20.616 6.31478 20.9127 6.61143 21.122 6.9673C21.3368 7.33035 21.4479 7.74536 21.4433 8.16719C21.4473 8.5916 21.3363 9.0091 21.122 9.37547C20.9149 9.73524 20.6179 10.0351 20.2602 10.2458C19.8971 10.4608 19.4819 10.572 19.0599 10.567H19.0605ZM22.0516 18.0029V6.00396H25.9892V18.0029H22.0516ZM30.9737 12.5611C30.9848 12.5727 31.0693 12.7108 31.2272 12.9751C31.3851 13.2395 31.5907 13.5776 31.8439 13.9892C32.0974 14.4006 32.3649 14.8371 32.6463 15.2989C32.9278 15.7606 33.1926 16.1972 33.4408 16.6086C33.6881 17.0201 33.9697 17.4848 34.2857 18.0029H29.9598C29.6893 17.5635 29.4441 17.1663 29.2245 16.8114C29.0048 16.4565 28.7713 16.0735 28.5238 15.6622C28.2758 15.2514 28.0306 14.8514 27.7882 14.4623C27.5458 14.0733 27.3375 13.7325 27.1633 13.4399C26.9883 13.1472 26.8671 12.95 26.7997 12.8484C26.6325 12.5963 26.5336 12.3052 26.5127 12.0034C26.5294 11.7138 26.6226 11.4338 26.7828 11.192C26.8504 11.0793 26.9743 10.8793 27.1545 10.592C27.3348 10.3047 27.546 9.96392 27.7882 9.56959C28.0304 9.17526 28.2756 8.77247 28.5238 8.36124C28.772 7.95001 29.0056 7.5641 29.2245 7.20357C29.4445 6.84342 29.6897 6.44345 29.9598 6.00368H34.2857L30.9396 11.4624C30.8361 11.6244 30.7777 11.8112 30.7706 12.0034C30.7818 12.2052 30.8522 12.3992 30.9731 12.5611H30.9737Z" fill="white"/>
<path d="M45.3658 12.3873C45.1197 12.1366 44.834 11.928 44.5201 11.77C44.1912 11.6035 43.849 11.4649 43.4969 11.3556C43.1361 11.2428 42.764 11.1469 42.3806 11.0678C42.0871 11.0003 41.8136 10.9328 41.5603 10.8651C41.3275 10.805 41.101 10.7228 40.8838 10.6196C40.6971 10.5312 40.5236 10.4174 40.3681 10.2813C40.2218 10.1523 40.1086 9.98995 40.0381 9.80801C39.9603 9.59398 39.9231 9.36732 39.9284 9.13965C39.9247 8.9039 39.9618 8.66929 40.0381 8.4462C40.1075 8.24944 40.2236 8.07242 40.3763 7.93031C40.5347 7.78537 40.7144 7.66569 40.9092 7.57544C41.132 7.47386 41.3684 7.40545 41.6111 7.37245C41.8996 7.33132 42.1907 7.31155 42.4821 7.31326C42.7476 7.31378 43.0129 7.32781 43.277 7.35528C43.5441 7.38316 43.8095 7.42558 44.072 7.48239C44.3269 7.53768 44.5782 7.60829 44.8246 7.69381C45.0553 7.77315 45.2788 7.8721 45.4927 7.98953L45.7295 6.50141C45.489 6.37593 45.2369 6.27399 44.9768 6.19698C44.7119 6.11823 44.444 6.05047 44.1734 5.99371C43.8996 5.93711 43.6229 5.89487 43.3447 5.86715C43.0628 5.83896 42.7752 5.82486 42.4821 5.82486C41.884 5.81836 41.2874 5.88644 40.7061 6.02754C40.2112 6.14708 39.7434 6.35956 39.3277 6.65364C38.9447 6.9284 38.6366 7.29459 38.4313 7.71889C38.2124 8.19582 38.1053 8.7165 38.1184 9.24112C38.1087 9.64712 38.1746 10.0514 38.3129 10.4332C38.4342 10.7534 38.6215 11.0445 38.8626 11.2877C39.101 11.5256 39.3747 11.7253 39.6742 11.8796C39.9918 12.0432 40.3229 12.1792 40.6639 12.2859C41.0191 12.3986 41.3827 12.4945 41.7548 12.5734C42.0593 12.6409 42.3412 12.7113 42.6005 12.7848C42.8418 12.8513 43.0767 12.939 43.3024 13.047C43.4965 13.1386 43.676 13.2582 43.8352 13.4021C43.9862 13.5441 44.1046 13.7172 44.1819 13.9096C44.2715 14.1413 44.3146 14.3884 44.3087 14.6368C44.3132 14.901 44.2732 15.164 44.1904 15.4149C44.1161 15.6318 44.0014 15.8327 43.8521 16.0068C43.702 16.1784 43.5176 16.3166 43.3108 16.4125C43.0771 16.5202 42.8293 16.5942 42.5748 16.6326C42.2644 16.6803 41.9505 16.7029 41.6364 16.7003C41.331 16.6995 41.026 16.6797 40.7231 16.6411C40.4073 16.6016 40.0917 16.548 39.7759 16.4801C39.4648 16.4139 39.1571 16.332 38.8541 16.2349C38.5553 16.1396 38.2706 16.041 38 15.9392L38.2199 17.6136C38.5082 17.7212 38.8017 17.8143 39.0994 17.8924C39.3696 17.9634 39.6435 18.0198 39.9197 18.0616C40.1843 18.1008 40.4492 18.1318 40.7146 18.1546C40.9799 18.1773 41.2477 18.1886 41.5177 18.1884C42.1233 18.1922 42.7273 18.1298 43.3193 18.0023C43.8433 17.8925 44.3423 17.686 44.7908 17.3935C45.2092 17.1165 45.5475 16.7345 45.7718 16.2856C46.0189 15.754 46.1377 15.1717 46.1185 14.5858C46.1277 14.1493 46.0619 13.7144 45.924 13.3001C45.806 12.9591 45.6156 12.6477 45.3658 12.3873Z" fill="#F34531"/>
<path d="M54.6683 9.72344C54.0613 9.35178 53.3585 9.16653 52.6472 9.19066C52.225 9.19275 51.8047 9.24661 51.3956 9.35105C50.9535 9.46362 50.5273 9.63134 50.1271 9.85028C50.0476 9.89313 49.9686 9.94134 49.8903 9.98954V9.20756L48.1651 9.4782V21.5542H49.8903V17.7675C49.9018 17.7723 49.9126 17.7777 49.9241 17.7828C50.2366 17.9125 50.5629 18.0061 50.8966 18.0618C51.2906 18.1268 51.6895 18.1579 52.0888 18.1548C52.8503 18.168 53.6012 17.975 54.2621 17.5964C54.9112 17.2118 55.4387 16.6521 55.7843 15.9815C56.1838 15.1818 56.3785 14.2955 56.3509 13.4021C56.3669 12.6467 56.2197 11.8967 55.9194 11.2034C55.655 10.599 55.2203 10.0847 54.6683 9.72344ZM54.2202 15.381C54.017 15.8301 53.6764 16.2032 53.2476 16.4463C52.7709 16.6961 52.2378 16.8185 51.7 16.8018C51.4423 16.802 51.185 16.7821 50.9304 16.7423C50.6633 16.6997 50.4002 16.6348 50.1439 16.5481C50.0627 16.5199 49.9748 16.4877 49.8903 16.4567V11.1191C49.9125 11.1086 49.9356 11.0951 49.9579 11.085C50.2058 10.9722 50.4369 10.8763 50.6513 10.7972C50.8542 10.7214 51.0637 10.6648 51.2771 10.628C51.4671 10.5953 51.6595 10.5783 51.8522 10.5773C52.3736 10.5599 52.891 10.6733 53.3573 10.9071C53.7651 11.1291 54.0845 11.4842 54.2621 11.9132C54.4772 12.4621 54.5779 13.0491 54.5581 13.6384C54.5761 14.2371 54.4606 14.8324 54.2202 15.381Z" fill="#F34531"/>
<path d="M64.5966 9.73183C63.8919 9.35733 63.1026 9.17093 62.3048 9.19061C61.4996 9.17215 60.7037 9.36456 59.9958 9.74876C59.3424 10.1144 58.808 10.6605 58.4566 11.3217C58.0749 12.0634 57.8859 12.8893 57.907 13.7232C57.8854 14.5507 58.0623 15.3713 58.4229 16.1164C58.7469 16.7669 59.2637 17.3015 59.9028 17.6474C60.5908 18.0078 61.3589 18.1881 62.1354 18.1714C62.9482 18.1876 63.7517 17.9955 64.4694 17.6136C65.1396 17.248 65.6892 16.6956 66.0512 16.0234C66.4438 15.273 66.6388 14.4348 66.6178 13.5881C66.6369 12.7816 66.4567 11.9827 66.0931 11.2625C65.7562 10.6158 65.2355 10.0833 64.5966 9.73183ZM64.4948 15.3979C64.3048 15.8373 63.9827 16.2068 63.5733 16.455C63.1618 16.6905 62.6943 16.8103 62.2202 16.8017C61.7553 16.8133 61.2969 16.6898 60.9007 16.4463C60.5087 16.1859 60.2026 15.8152 60.0212 15.381C59.791 14.8239 59.6815 14.2244 59.6998 13.622C59.6798 13.0357 59.7896 12.4523 60.0212 11.9134C60.2109 11.4898 60.5271 11.1354 60.9263 10.8986C61.3529 10.6636 61.8346 10.5468 62.3215 10.5603C62.7016 10.5508 63.0793 10.6229 63.4293 10.7718C63.7358 10.9101 64.0032 11.1223 64.2076 11.3894C64.4255 11.6795 64.5835 12.0101 64.6724 12.3619C64.7781 12.7735 64.8293 13.1971 64.8246 13.622C64.8443 14.2308 64.732 14.8368 64.4948 15.3979Z" fill="#F34531"/>
<path d="M72.2495 9.3172C71.9332 9.40222 71.6311 9.5333 71.353 9.70621C71.0646 9.88645 70.7979 10.0993 70.5581 10.3405C70.5181 10.3805 70.4794 10.425 70.4397 10.467V9.20753L68.7145 9.46124V18.0026H70.4397V11.6126C70.5678 11.523 70.7005 11.4401 70.8372 11.364C71.0064 11.2706 71.1816 11.1887 71.3617 11.1188C71.5363 11.0511 71.7139 10.9919 71.8943 10.9412C72.0799 10.8895 72.2694 10.8526 72.4609 10.831C72.6659 10.8084 72.8723 10.8029 73.0782 10.8143L73.2812 9.22419C72.9345 9.19953 72.5861 9.23093 72.2495 9.3172Z" fill="#F34531"/>
<path d="M79.5899 16.5904C79.5107 16.6073 79.4233 16.6239 79.3275 16.6411L79.0402 16.6916C78.9479 16.7082 78.8548 16.7196 78.7612 16.7257C78.6706 16.7313 78.586 16.7341 78.5075 16.7341C78.2483 16.741 77.9909 16.689 77.7548 16.5819C77.5519 16.4855 77.3836 16.3291 77.2728 16.1337C77.1543 15.913 77.096 15.665 77.1037 15.4146V10.7298H79.4885L79.6745 9.37669H77.1037V6.70463L75.3784 7.31353V9.37669H74.0761L73.8898 10.7298H75.3784V15.77C75.3708 16.1062 75.4223 16.4412 75.5307 16.7595C75.6177 17.0112 75.7527 17.2438 75.9281 17.4442C76.0889 17.623 76.2846 17.7669 76.5032 17.867C76.7268 17.97 76.9625 18.044 77.2048 18.0872C77.4448 18.1314 77.6882 18.154 77.9321 18.1548C78.1126 18.1548 78.2902 18.1491 78.4652 18.1377C78.6401 18.1262 78.8009 18.1094 78.9473 18.0872C79.0936 18.0644 79.232 18.039 79.3616 18.0108C79.4913 17.9826 79.6009 17.9578 79.6912 17.935L79.7929 16.5309C79.7271 16.5564 79.6591 16.5763 79.5899 16.5904Z" fill="#F34531"/>
</svg>

<svg xmlns="http://www.w3.org/2000/svg" viewBox="0 0 81 24"><path fill="#fff" d="M0 18.003V6.004h3.937v11.999H0Zm9.294-10.09 2.264 10.09H7.25L4.545 6.004h2.417a2.276 2.276 0 0 1 1.513.55c.42.345.71.826.819 1.36Zm2.855 10.09V6.004h3.938v11.999h-3.938Zm6.912-7.436a2.381 2.381 0 0 1-2.078-1.192 2.345 2.345 0 0 1-.322-1.208 2.301 2.301 0 0 1 .321-1.2 2.41 2.41 0 0 1 3.278-.862c.356.21.653.506.862.862.215.363.326.778.321 1.2a2.35 2.35 0 0 1-.321 1.208 2.4 2.4 0 0 1-.862.87 2.302 2.302 0 0 1-1.2.322Zm2.99 7.436V6.004h3.938v11.999h-3.937Zm8.923-5.442c.01.012.095.15.253.414s.364.603.617 1.014a309.436 309.436 0 0 1 1.597 2.62c.247.411.529.876.845 1.394H29.96c-.27-.44-.516-.837-.736-1.192-.22-.355-.453-.738-.7-1.149-.248-.41-.493-.81-.736-1.2a60.12 60.12 0 0 1-.625-1.022 18.04 18.04 0 0 0-.363-.592 1.747 1.747 0 0 1-.287-.845c.016-.29.11-.57.27-.811.067-.113.191-.313.371-.6s.392-.628.634-1.022c.242-.395.488-.798.736-1.209l.7-1.157.736-1.2h4.326l-3.346 5.458a1.079 1.079 0 0 0-.17.541c.012.202.082.396.203.558Z"/><path fill="#F34531" d="M45.366 12.387a3.203 3.203 0 0 0-.846-.617 6.593 6.593 0 0 0-1.023-.414 11.58 11.58 0 0 0-1.116-.288 24.165 24.165 0 0 1-.82-.203 3.775 3.775 0 0 1-.677-.245 2.235 2.235 0 0 1-.516-.339 1.218 1.218 0 0 1-.33-.473 1.832 1.832 0 0 1-.11-.668c-.003-.236.034-.47.11-.694.07-.197.186-.374.338-.516.159-.145.338-.264.533-.355.223-.101.46-.17.702-.203.289-.04.58-.06.871-.059a7.381 7.381 0 0 1 1.59.17c.255.055.506.125.753.21.23.08.454.18.668.297l.236-1.489a4.213 4.213 0 0 0-.752-.304 10.082 10.082 0 0 0-.804-.203 8.024 8.024 0 0 0-.828-.127 8.666 8.666 0 0 0-.863-.042 7.198 7.198 0 0 0-1.776.203c-.495.12-.963.332-1.378.626a2.825 2.825 0 0 0-.897 1.065 3.443 3.443 0 0 0-.313 1.522c-.01.406.057.81.195 1.192.121.32.308.611.55.855.238.238.512.437.811.592.318.163.649.3.99.406.355.113.719.209 1.09.287.305.068.587.138.846.212.242.066.477.154.702.262.194.092.374.211.533.355.151.142.27.315.347.508.09.231.133.478.127.727.004.264-.036.527-.119.778a1.81 1.81 0 0 1-.338.592 1.63 1.63 0 0 1-.541.405 2.732 2.732 0 0 1-.736.22 5.86 5.86 0 0 1-.939.068c-.305 0-.61-.02-.913-.059-.316-.04-.631-.093-.947-.16a9.5 9.5 0 0 1-.922-.246 17.714 17.714 0 0 1-.854-.296l.22 1.675c.288.107.582.2.88.278.27.071.544.128.82.17.264.039.53.07.795.093.265.022.533.034.803.033a8.308 8.308 0 0 0 1.801-.186 4.313 4.313 0 0 0 1.472-.608c.418-.277.757-.66.98-1.108a3.742 3.742 0 0 0 .347-1.7 3.817 3.817 0 0 0-.194-1.286 2.499 2.499 0 0 0-.558-.913ZM54.668 9.723a3.635 3.635 0 0 0-2.02-.532 5.163 5.163 0 0 0-1.252.16 5.44 5.44 0 0 0-1.506.639v-.782l-1.725.27v12.076h1.725v-3.787l.034.016c.313.13.639.223.973.279.394.065.793.096 1.192.093a4.225 4.225 0 0 0 2.173-.559 4.015 4.015 0 0 0 1.522-1.614c.4-.8.595-1.686.567-2.58a5.252 5.252 0 0 0-.432-2.199 3.395 3.395 0 0 0-1.25-1.48Zm-.448 5.658c-.203.45-.544.822-.972 1.065-.477.25-1.01.372-1.548.356a4.827 4.827 0 0 1-1.81-.345v-5.338c.023-.01.046-.024.068-.034.248-.113.479-.209.693-.288a3.476 3.476 0 0 1 1.201-.22 3.125 3.125 0 0 1 1.505.33c.408.222.727.577.905 1.006a4.33 4.33 0 0 1 .296 1.725 4.04 4.04 0 0 1-.338 1.743ZM64.597 9.732a4.64 4.64 0 0 0-2.292-.541 4.618 4.618 0 0 0-2.31.558 3.9 3.9 0 0 0-1.538 1.573 4.973 4.973 0 0 0-.55 2.401 5.183 5.183 0 0 0 .516 2.393 3.53 3.53 0 0 0 1.48 1.531c.688.36 1.456.541 2.232.524a4.767 4.767 0 0 0 2.334-.557 3.939 3.939 0 0 0 1.582-1.59c.393-.751.588-1.59.567-2.436a4.903 4.903 0 0 0-.525-2.325 3.696 3.696 0 0 0-1.496-1.531Zm-.102 5.666c-.19.44-.512.809-.922 1.057a2.628 2.628 0 0 1-1.353.347 2.406 2.406 0 0 1-1.32-.356 2.38 2.38 0 0 1-.879-1.065 4.267 4.267 0 0 1-.321-1.759c-.02-.586.09-1.17.321-1.709.19-.423.506-.778.905-1.014a2.735 2.735 0 0 1 1.395-.339c.38-.01.758.063 1.108.212.307.138.574.35.779.617.218.29.376.621.464.973.106.412.157.835.153 1.26a4.211 4.211 0 0 1-.33 1.776ZM72.25 9.317a3.34 3.34 0 0 0-.897.39c-.288.18-.555.392-.795.633-.04.04-.079.085-.118.127v-1.26l-1.725.254v8.542h1.725v-6.39a4.318 4.318 0 0 1 .922-.494c.174-.068.352-.127.532-.178a3.627 3.627 0 0 1 1.184-.127l.203-1.59a3.232 3.232 0 0 0-1.032.093ZM79.59 16.59c-.08.017-.167.034-.263.051l-.287.05a2.491 2.491 0 0 1-.279.035c-.09.005-.175.008-.254.008a1.712 1.712 0 0 1-.752-.152 1.093 1.093 0 0 1-.482-.448 1.427 1.427 0 0 1-.17-.72V10.73h2.386l.185-1.353h-2.57V6.705l-1.726.609v2.063h-1.302l-.186 1.353h1.488v5.04c-.007.336.044.671.153.99.087.251.222.484.397.684.16.179.357.323.575.423.224.103.46.177.702.22.24.044.483.067.727.068.18 0 .358-.006.533-.017a5.747 5.747 0 0 0 .897-.127c.13-.028.239-.053.33-.076l.1-1.404a1.256 1.256 0 0 1-.202.06Z"/></svg>
